wp-content/themes/thousand_one/images/logo/brands/logo-xiaomi.svg

<svg width="200" height="120" viewBox="0 0 200 120" fill="none" xmlns="http://www.w3.org/2000/svg">
<path d="M118.8 86.9999V48.2999C118.8 39.4999 111.7 32.3999 102.9 32.3999H58.1996C57.8996 32.3999 57.5996 32.6999 57.5996 32.9999V86.9999C57.5996 87.2999 57.8996 87.5999 58.1996 87.5999H70.0996C70.3996 87.5999 70.6996 87.2999 70.6996 86.9999V44.5999C70.6996 44.2999 70.9996 43.9999 71.2996 43.9999H96.9996C101.8 43.9999 105.7 47.8999 105.7 52.6999V86.9999C105.7 87.2999 106 87.5999 106.3 87.5999H118.1C118.5 87.5999 118.8 87.2999 118.8 86.9999Z" fill="#FE660B"/>
<path d="M94.7 86.9999C94.7 87.2999 94.4 87.5999 94.1 87.5999H82.1C81.8 87.5999 81.5 87.2999 81.5 86.9999V54.4999C81.5 54.1999 81.8 53.8999 82.1 53.8999H94C94.3 53.8999 94.6 54.1999 94.6 54.4999V86.9999H94.7ZM142.4 86.9999C142.4 87.2999 142.1 87.5999 141.8 87.5999H129.9C129.6 87.5999 129.3 87.2999 129.3 86.9999V32.9999C129.3 32.6999 129.6 32.3999 129.9 32.3999H141.8C142.1 32.3999 142.4 32.6999 142.4 32.9999V86.9999Z" fill="#FE660B"/>
<rect x="0.5" y="0.5" width="199" height="119" stroke="black"/>
</svg>

<?xml version="1.0" encoding="utf-8"?>
<!-- Generator: Adobe Illustrator 24.0.1, SVG Export Plug-In . SVG Version: 6.00 Build 0)  -->
<svg version="1.1" id="Слой_1" xmlns="http://www.w3.org/2000/svg" xmlns:xlink="http://www.w3.org/1999/xlink" x="0px" y="0px"
	 viewBox="0 0 200 120" style="enable-background:new 0 0 200 120;" xml:space="preserve">
<style type="text/css">
	.st0{display:none;fill:#FE660B;}
	.st1{fill:#FE660B;}
</style>
<g>
	<path class="st0" d="M-1150-1190h2500v2500h-2500V-1190z"/>
	<g>
		<path class="st1" d="M118.8,87V48.3c0-8.8-7.1-15.9-15.9-15.9H58.2c-0.3,0-0.6,0.3-0.6,0.6V87c0,0.3,0.3,0.6,0.6,0.6c0,0,0,0,0,0
			h11.9c0.3,0,0.6-0.3,0.6-0.6V44.6c0-0.3,0.3-0.6,0.6-0.6H97c4.8,0,8.7,3.9,8.7,8.7V87c0,0.3,0.3,0.6,0.6,0.6h11.8
			C118.5,87.6,118.8,87.3,118.8,87"/>
		<path class="st1" d="M94.7,87L94.7,87c0,0.3-0.3,0.6-0.6,0.6H82.1c-0.3,0-0.6-0.3-0.6-0.6c0,0,0,0,0,0V54.5c0-0.3,0.3-0.6,0.6-0.6
			h11.9c0.3,0,0.6,0.3,0.6,0.6V87L94.7,87z M142.4,87c0,0.3-0.3,0.6-0.6,0.6h-11.9c-0.3,0-0.6-0.3-0.6-0.6V33c0-0.3,0.3-0.6,0.6-0.6
			h11.9c0.3,0,0.6,0.3,0.6,0.6v0V87z"/>
	</g>
</g>
</svg>
